X: 2
T: Eamonn McGivney's
R: hornpipe
M: 4/4
L: 1/8
K: Edor
(GA)||:uBee(d [B2e2])ef|edB(A {d}B2)(3ABu(c|d2)(dc) dfgf|edBv(G A)(dB)(A|G2)uG(A {d}B2gB|ue(dBd) (eg) (3ggg|EFG(vA Bd)BA|G(E{G}ED) E2(GA):||:B(GEG) B(GEG)|BGA(F ~E3)u(B|A)(FDF) A(FDF)|AF (3GF(E D)(vE (3FED|G2)uG(A {d}B2)gB|e(dBd) (eg) (3ggg|EFG(A Bd)BA|G(E{G}ED) E2GA:||


Tune 2020	Setting 2020

